X:154
T: Logan Water
N: O'Farrell's Pocket Companion v.2 (Sky ed. p.79)
N: "Scotch"
M: C
L: 1/8
Q: 130 % "slow"
K: Am
e>d|c2 B>A A3c|GEDG G3G|c2 {B}A2 AcGA|c>Bcd e3e|
f2 ed e2 dc|dcBA G3c|A>Bcd efde|c2 BA/B/ A2 :|
e>g|a2 A2 A3c|GEDE G2 e>g|a2 A2 A>cGA|cBcd e3e|
f2 ed e2 dc|dcBA G3c|A>Bc>d efde|c2 BA/B/ A2 :|
